!!!OTL: Gaemi Lullaby
!!!OTL@@CHN: 侗乡摇篮曲
!!!ARE: China
**kern
*clefG2
*M2/4
*k[b-e-]
*MM60
{8f
16f
16g
8b-
16cc
16dd
=1
8.cc
16g
8b-
8cc
=2
2cc
=3
2cc}
=4
{8f
16f
16g
8b-
16cc
16b-
=5
8.b-
16g
8b-
16g
16f
=6
2f
=7
2f}
=8
{8c
8c
8f
16g
16f
=9
8g
4.g}
=10
{8b-
16f
16f
8b-
16cc
16b-
=11
2b-}
=12
{8cc
8cc
8ee-
16ff
16gg
=13
4.ff
8cc
=14
8ee-
16ff
16ee-
8ee-
8cc
=15
2cc}
=16
{8cc
8cc
8ee-
16ff
16gg
=17
4.ff
8cc
=18
8b-
16cc
16b-
8b-
8g
=19
2g}
=20
{8f
8g
8b-
8cc
=21
4cc
8dd
8cc
=22
2cc
=23
8f
8g
8b-
8cc
=24
4b-
8b-
8g
=25
2g}
=26
{8cc
8cc
8cc
8g
=27
8g
16d
16c
4c}
=28
{8f
16f
16g
8b-
8cc
=29
2b-
=30
8b-
8g
8b-
8cc
=31
2cc}
=32
{8f
4g
8b-
=33
8cc
4.ee-
=34
2ff
=35
4b-
8g
8b-
=36
2cc
=37
2cc}
=3=
*-
